; generated by Slic3r 1.3.0 on 2024-09-02 at 01:29:27

; external perimeters extrusion width = 0.44mm (3.38mm^3/s)
; perimeters extrusion width = 0.48mm (7.54mm^3/s)
; infill extrusion width = 0.48mm (10.05mm^3/s)
; solid infill extrusion width = 0.48mm (2.51mm^3/s)
; top infill extrusion width = 0.48mm (1.88mm^3/s)

M107
M190 S50 ; set bed temperature and wait for it to be reached
M104 S205 ; set temperature
G21 ;metric values
G90 ;absolute positioning
M82 ;set extruder to absolute mode
M107 ;start with the fan off
G28 X0 Y0 ;move X/Y to min endstops
G28 Z0 ;move Z to min endstops
G1 Z15.0 F9000 ;move the platform down 15mm
G92 E0 ;zero the extruded length
G1 F200 E3 ;extrude 3mm of feed stock
G92 E0 ;zero the extruded length again
G1 F9000
;Put printing message on LCD screen
M117 Printing...
; Filament gcode

M109 S205 ; set temperature and wait for it to be reached
G21 ; set units to millimeters
G90 ; use absolute coordinates
M82 ; use absolute distances for extrusion
G92 E0
G1 Z0.150 F7800.000
G1 E-2.00000 F2400.00000
G92 E0
G1 X34.415 Y33.253 F7800.000
G1 E2.00000 F2400.00000
G1 F1800
G1 X36.168 Y31.774 E2.20854
G1 X38.866 Y30.906 E2.46624
G1 X64.866 Y28.406 E4.84131
G1 X65.500 Y28.375 E4.89904
G1 X85.500 Y28.375 E6.71763
G1 X87.759 Y28.772 E6.92617
G1 X89.747 Y29.915 E7.13471
G1 X91.226 Y31.668 E7.34326
G1 X92.019 Y33.820 E7.55180
G1 X92.125 Y35.000 E7.65951
G1 X92.125 Y90.000 E12.66063
G1 X91.728 Y92.259 E12.86918
G1 X90.585 Y94.247 E13.07772
G1 X88.832 Y95.726 E13.28626
G1 X86.680 Y96.519 E13.49480
G1 X85.500 Y96.625 E13.60251
G1 X65.500 Y96.625 E15.42110
G1 X64.866 Y96.594 E15.47883
G1 X38.866 Y94.094 E17.85390
G1 X36.655 Y93.483 E18.06244
G1 X34.786 Y92.155 E18.27099
G1 X33.481 Y90.268 E18.47953
G1 X32.875 Y87.500 E18.73723
G1 X32.875 Y37.500 E23.28371
G1 X33.272 Y35.241 E23.49225
G1 X34.386 Y33.305 E23.69534
G1 E21.69534 F2400.00000
G92 E0
G1 X76.299 Y38.827 F7800.000
G1 E2.00000 F2400.00000
G1 F1800
G1 X76.122 Y38.969 E2.02060
G1 X75.941 Y39.064 E2.03920
G1 X75.746 Y39.125 E2.05780
G1 X75.500 Y39.152 E2.08026
G1 X75.254 Y39.125 E2.10272
G1 X75.056 Y39.063 E2.12167
G1 X74.843 Y38.946 E2.14377
G1 X74.683 Y38.812 E2.16272
G1 X74.531 Y38.622 E2.18483
G1 X74.435 Y38.437 E2.20376
G1 X74.367 Y38.206 E2.22566
G1 X74.349 Y38.000 E2.24446
G1 X74.366 Y37.796 E2.26308
G1 X74.436 Y37.559 E2.28554
G1 X74.554 Y37.343 E2.30800
G1 X74.688 Y37.183 E2.32695
G1 X74.878 Y37.031 E2.34906
G1 X75.059 Y36.936 E2.36766
G1 X75.254 Y36.875 E2.38624
G1 X75.494 Y36.848 E2.40814
G1 X75.703 Y36.866 E2.42729
G1 X75.941 Y36.936 E2.44975
G1 X76.155 Y37.053 E2.47200
G1 X76.314 Y37.186 E2.49080
G1 X76.446 Y37.343 E2.50943
G1 X76.564 Y37.559 E2.53187
G1 X76.633 Y37.794 E2.55412
G1 X76.652 Y38.004 E2.57327
G1 X76.625 Y38.246 E2.59540
G1 X76.563 Y38.444 E2.61435
G1 X76.446 Y38.657 E2.63646
G1 X76.340 Y38.784 E2.65146
G1 X76.355 Y39.047 F7800.000
G1 E0.65146 F2400.00000
G92 E0
G1 X75.486 Y84.221 F7800.000
G1 E2.00000 F2400.00000
G1 F1800
G1 X75.819 Y84.249 E2.03037
G1 X76.181 Y84.355 E2.06472
G1 X76.512 Y84.536 E2.09900
G1 X76.758 Y84.742 E2.12816
G1 X76.964 Y84.988 E2.15733
G1 X77.145 Y85.319 E2.19161
G1 X77.251 Y85.680 E2.22589
G1 X77.279 Y86.000 E2.25505
G1 X77.251 Y86.320 E2.28422
G1 X77.145 Y86.681 E2.31850
G1 X76.964 Y87.012 E2.35278
G1 X76.758 Y87.258 E2.38194
G1 X76.512 Y87.464 E2.41111
G1 X76.182 Y87.645 E2.44531
G1 X75.772 Y87.765 E2.48421
G1 X75.465 Y87.777 E2.51208
G1 X75.125 Y87.740 E2.54319
G1 X74.809 Y87.640 E2.57333
G1 X74.488 Y87.464 E2.60664
G1 X74.242 Y87.258 E2.63580
G1 X74.036 Y87.012 E2.66497
G1 X73.855 Y86.681 E2.69925
G1 X73.749 Y86.320 E2.73352
G1 X73.721 Y86.000 E2.76269
G1 X73.749 Y85.680 E2.79186
G1 X73.855 Y85.319 E2.82614
G1 X74.036 Y84.988 E2.86041
G1 X74.242 Y84.742 E2.88958
G1 X74.488 Y84.536 E2.91875
G1 X74.809 Y84.360 E2.95205
G1 X75.125 Y84.260 E2.98214
G1 X75.426 Y84.227 E3.00973
G1 X75.494 Y84.848 F7800.000
G1 F1800
G1 X75.703 Y84.866 E3.02888
G1 X75.941 Y84.936 E3.05137
G1 X76.157 Y85.054 E3.07383
G1 X76.314 Y85.186 E3.09242
G1 X76.446 Y85.343 E3.11102
G1 X76.564 Y85.559 E3.13348
G1 X76.634 Y85.796 E3.15594
G1 X76.651 Y86.000 E3.17454
G1 X76.634 Y86.204 E3.19314
G1 X76.564 Y86.441 E3.21560
G1 X76.446 Y86.657 E3.23806
G1 X76.314 Y86.814 E3.25666
G1 X76.157 Y86.946 E3.27525
G1 X75.941 Y87.064 E3.29768
G1 X75.670 Y87.144 E3.32336
G1 X75.488 Y87.151 E3.33998
G1 X75.254 Y87.125 E3.36130
G1 X75.056 Y87.063 E3.38025
G1 X74.843 Y86.946 E3.40236
G1 X74.686 Y86.814 E3.42096
G1 X74.554 Y86.657 E3.43956
G1 X74.436 Y86.441 E3.46202
G1 X74.366 Y86.204 E3.48447
G1 X74.349 Y86.000 E3.50307
G1 X74.366 Y85.796 E3.52167
G1 X74.436 Y85.559 E3.54413
G1 X74.554 Y85.343 E3.56659
G1 X74.686 Y85.186 E3.58519
G1 X74.843 Y85.054 E3.60379
G1 X75.056 Y84.937 E3.62589
G1 X75.254 Y84.875 E3.64483
G1 X75.434 Y84.855 E3.66127
G1 X75.494 Y84.848 F7800.000
G1 E1.66127 F2400.00000
G92 E0
G1 X75.500 Y72.409 F7800.000
G1 E2.00000 F2400.00000
G1 F1800
G1 X74.996 Y72.354 E2.04610
G1 X74.563 Y72.217 E2.08743
G1 X74.134 Y71.982 E2.13193
G1 X73.799 Y71.701 E2.17166
G1 X73.518 Y71.366 E2.21139
G1 X73.274 Y70.922 E2.25749
G1 X73.132 Y70.435 E2.30359
G1 X73.094 Y70.000 E2.34332
G1 X73.132 Y69.565 E2.38306
G1 X73.274 Y69.078 E2.42915
G1 X73.518 Y68.634 E2.47525
G1 X73.799 Y68.299 E2.51498
G1 X74.134 Y68.018 E2.55472
G1 X74.577 Y67.775 E2.60069
G1 X75.127 Y67.613 E2.65280
G1 X75.536 Y67.598 E2.69003
G1 X75.934 Y67.632 E2.72638
G1 X76.422 Y67.774 E2.77259
G1 X76.866 Y68.018 E2.81869
G1 X77.201 Y68.299 E2.85842
G1 X77.482 Y68.634 E2.89816
G1 X77.726 Y69.078 E2.94426
G1 X77.868 Y69.565 E2.99035
G1 X77.906 Y70.000 E3.03009
G1 X77.868 Y70.435 E3.06982
G1 X77.726 Y70.922 E3.11592
G1 X77.482 Y71.366 E3.16201
G1 X77.201 Y71.701 E3.20175
G1 X76.866 Y71.982 E3.24148
G1 X76.437 Y72.217 E3.28598
G1 X76.004 Y72.354 E3.32731
G1 X75.560 Y72.403 E3.36795
G1 X75.500 Y71.781 F7800.000
G1 F1800
G1 X75.125 Y71.740 E3.40223
G1 X74.809 Y71.640 E3.43237
G1 X74.488 Y71.464 E3.46567
G1 X74.242 Y71.258 E3.49484
G1 X74.036 Y71.012 E3.52400
G1 X73.855 Y70.681 E3.55828
G1 X73.749 Y70.320 E3.59256
G1 X73.721 Y70.000 E3.62173
G1 X73.749 Y69.680 E3.65089
G1 X73.855 Y69.319 E3.68517
G1 X74.036 Y68.988 E3.71945
G1 X74.242 Y68.742 E3.74862
G1 X74.488 Y68.536 E3.77778
G1 X74.818 Y68.355 E3.81198
G1 X75.228 Y68.235 E3.85088
G1 X75.521 Y68.224 E3.87752
G1 X75.819 Y68.249 E3.90470
G1 X76.181 Y68.355 E3.93904
G1 X76.512 Y68.536 E3.97332
G1 X76.758 Y68.742 E4.00249
G1 X76.964 Y68.988 E4.03165
G1 X77.145 Y69.319 E4.06593
G1 X77.251 Y69.680 E4.10021
G1 X77.279 Y70.000 E4.12938
G1 X77.251 Y70.320 E4.15854
G1 X77.145 Y70.681 E4.19282
G1 X76.964 Y71.012 E4.22710
G1 X76.758 Y71.258 E4.25627
G1 X76.512 Y71.464 E4.28543
G1 X76.191 Y71.640 E4.31873
G1 X75.875 Y71.740 E4.34887
G1 X75.560 Y71.774 E4.37770
G1 X75.500 Y71.152 F7800.000
G1 F1800
G1 X75.254 Y71.125 E4.40016
G1 X75.056 Y71.063 E4.41910
G1 X74.843 Y70.946 E4.44121
G1 X74.686 Y70.814 E4.45981
G1 X74.554 Y70.657 E4.47841
G1 X74.436 Y70.441 E4.50087
G1 X74.366 Y70.204 E4.52333
G1 X74.349 Y70.000 E4.54193
G1 X74.366 Y69.796 E4.56053
G1 X74.436 Y69.559 E4.58298
G1 X74.554 Y69.343 E4.60544
G1 X74.686 Y69.186 E4.62404
G1 X74.843 Y69.054 E4.64264
G1 X75.059 Y68.936 E4.66507
G1 X75.330 Y68.856 E4.69074
G1 X75.703 Y68.866 E4.72474
G1 X75.941 Y68.936 E4.74722
G1 X76.157 Y69.054 E4.76968
G1 X76.314 Y69.186 E4.78828
G1 X76.446 Y69.343 E4.80688
G1 X76.564 Y69.559 E4.82934
G1 X76.634 Y69.796 E4.85180
G1 X76.651 Y70.000 E4.87040
G1 X76.634 Y70.204 E4.88900
G1 X76.564 Y70.441 E4.91145
G1 X76.446 Y70.657 E4.93391
G1 X76.314 Y70.814 E4.95251
G1 X76.157 Y70.946 E4.97111
G1 X75.944 Y71.063 E4.99322
G1 X75.746 Y71.125 E5.01217
G1 X75.560 Y71.146 E5.02917
G1 X75.500 Y71.152 F7800.000
G1 E3.02917 F2400.00000
G92 E0
G1 X75.482 Y56.407 F7800.000
G1 E2.00000 F2400.00000
G1 F1800
G1 X74.996 Y56.354 E2.04449
G1 X74.563 Y56.217 E2.08583
G1 X74.134 Y55.982 E2.13032
G1 X73.799 Y55.701 E2.17006
G1 X73.518 Y55.366 E2.20979
G1 X73.274 Y54.922 E2.25589
G1 X73.132 Y54.435 E2.30198
G1 X73.094 Y54.000 E2.34172
G1 X73.132 Y53.565 E2.38145
G1 X73.274 Y53.078 E2.42755
G1 X73.518 Y52.634 E2.47365
G1 X73.799 Y52.299 E2.51338
G1 X74.134 Y52.018 E2.55311
G1 X74.577 Y51.775 E2.59908
G1 X75.127 Y51.613 E2.65120
G1 X75.536 Y51.598 E2.68842
G1 X75.934 Y51.632 E2.72478
G1 X76.422 Y51.774 E2.77099
G1 X76.866 Y52.018 E2.81709
G1 X77.201 Y52.299 E2.85682
G1 X77.482 Y52.634 E2.89655
G1 X77.726 Y53.078 E2.94265
G1 X77.868 Y53.565 E2.98875
G1 X77.906 Y54.000 E3.02848
G1 X77.868 Y54.435 E3.06822
G1 X77.726 Y54.922 E3.11431
G1 X77.482 Y55.366 E3.16041
G1 X77.201 Y55.701 E3.20014
G1 X76.866 Y55.982 E3.23988
G1 X76.422 Y56.226 E3.28598
G1 X75.935 Y56.368 E3.33207
G1 X75.542 Y56.402 E3.36795
G1 X75.489 Y55.780 F7800.000
G1 F1800
G1 X75.125 Y55.740 E3.40125
G1 X74.809 Y55.640 E3.43139
G1 X74.488 Y55.464 E3.46469
G1 X74.242 Y55.258 E3.49386
G1 X74.036 Y55.012 E3.52303
G1 X73.855 Y54.681 E3.55731
G1 X73.749 Y54.320 E3.59158
G1 X73.721 Y54.000 E3.62075
G1 X73.749 Y53.680 E3.64992
G1 X73.855 Y53.319 E3.68419
G1 X74.036 Y52.988 E3.71847
G1 X74.242 Y52.742 E3.74764
G1 X74.488 Y52.536 E3.77681
G1 X74.818 Y52.355 E3.81100
G1 X75.228 Y52.235 E3.84990
G1 X75.521 Y52.224 E3.87654
G1 X75.819 Y52.249 E3.90372
G1 X76.181 Y52.355 E3.93807
G1 X76.512 Y52.536 E3.97234
G1 X76.758 Y52.742 E4.00151
G1 X76.964 Y52.988 E4.03068
G1 X77.145 Y53.319 E4.06496
G1 X77.251 Y53.680 E4.09923
G1 X77.279 Y54.000 E4.12840
G1 X77.251 Y54.320 E4.15757
G1 X77.145 Y54.681 E4.19184
G1 X76.964 Y55.012 E4.22612
G1 X76.758 Y55.258 E4.25529
G1 X76.512 Y55.464 E4.28446
G1 X76.181 Y55.645 E4.31873
G1 X75.820 Y55.751 E4.35301
G1 X75.549 Y55.774 E4.37770
G1 X75.496 Y55.152 F7800.000
G1 F1800
G1 X75.254 Y55.125 E4.39980
G1 X75.056 Y55.063 E4.41875
G1 X74.843 Y54.946 E4.44086
G1 X74.686 Y54.814 E4.45946
G1 X74.554 Y54.657 E4.47806
G1 X74.436 Y54.441 E4.50052
G1 X74.366 Y54.204 E4.52298
G1 X74.349 Y54.000 E4.54158
G1 X74.366 Y53.796 E4.56017
G1 X74.436 Y53.559 E4.58263
G1 X74.554 Y53.343 E4.60509
G1 X74.686 Y53.186 E4.62369
G1 X74.843 Y53.054 E4.64229
G1 X75.059 Y52.936 E4.66472
G1 X75.330 Y52.856 E4.69039
G1 X75.703 Y52.866 E4.72439
G1 X75.941 Y52.936 E4.74687
G1 X76.157 Y53.054 E4.76933
G1 X76.314 Y53.186 E4.78793
G1 X76.446 Y53.343 E4.80653
G1 X76.564 Y53.559 E4.82899
G1 X76.634 Y53.796 E4.85145
G1 X76.651 Y54.000 E4.87005
G1 X76.634 Y54.204 E4.88865
G1 X76.564 Y54.441 E4.91110
G1 X76.446 Y54.657 E4.93356
G1 X76.314 Y54.814 E4.95216
G1 X76.157 Y54.946 E4.97076
G1 X75.941 Y55.064 E4.99322
G1 X75.704 Y55.134 E5.01568
G1 X75.556 Y55.146 E5.02917
G1 X75.496 Y55.152 F7800.000
G1 E3.02917 F2400.00000
G92 E0
G1 X73.536 Y36.600 F7800.000
G1 E2.00000 F2400.00000
G1 F1800
G1 X73.274 Y37.078 E2.04960
G1 X73.132 Y37.565 E2.09569
G1 X73.094 Y38.001 E2.13554
G1 X73.133 Y38.439 E2.17554
G1 X73.270 Y38.906 E2.21973
G1 X73.479 Y39.308 E2.26099
G1 X73.785 Y39.690 E2.30548
G1 X74.134 Y39.982 E2.34682
G1 X74.563 Y40.217 E2.39131
G1 X74.996 Y40.354 E2.43264
G1 X75.500 Y40.409 E2.47874
G1 X76.004 Y40.354 E2.52484
G1 X76.421 Y40.223 E2.56457
G1 X76.808 Y40.021 E2.60431
G1 X77.190 Y39.715 E2.64880
G1 X77.482 Y39.366 E2.69013
G1 X77.717 Y38.937 E2.73463
G1 X77.854 Y38.504 E2.77596
G1 X77.908 Y38.016 E2.82057
G1 X77.867 Y37.561 E2.86217
G1 X77.726 Y37.077 E2.90796
G1 X77.464 Y36.600 E2.95748
G1 X83.900 Y36.600 E3.54276
G1 X83.900 Y88.400 E8.25296
G1 X76.690 Y88.400 E8.90855
G1 X76.618 Y88.118 E8.93501
G1 X76.866 Y87.982 E8.96077
G1 X77.201 Y87.701 E9.00050
G1 X77.482 Y87.366 E9.04024
G1 X77.726 Y86.922 E9.08634
G1 X77.868 Y86.435 E9.13243
G1 X77.906 Y86.000 E9.17217
G1 X77.868 Y85.565 E9.21190
G1 X77.726 Y85.078 E9.25800
G1 X77.482 Y84.634 E9.30410
G1 X77.201 Y84.299 E9.34383
G1 X76.866 Y84.018 E9.38356
G1 X76.422 Y83.774 E9.42966
G1 X75.934 Y83.632 E9.47587
G1 X75.478 Y83.593 E9.51747
G1 X74.995 Y83.646 E9.56166
G1 X74.563 Y83.783 E9.60292
G1 X74.134 Y84.018 E9.64741
G1 X73.799 Y84.299 E9.68715
G1 X73.518 Y84.634 E9.72688
G1 X73.274 Y85.078 E9.77298
G1 X73.132 Y85.565 E9.81908
G1 X73.094 Y86.000 E9.85881
G1 X73.132 Y86.435 E9.89854
G1 X73.274 Y86.922 E9.94464
G1 X73.518 Y87.366 E9.99074
G1 X73.799 Y87.701 E10.03047
G1 X74.134 Y87.982 E10.07021
G1 X74.382 Y88.118 E10.09597
G1 X74.310 Y88.400 E10.12242
G1 X67.100 Y88.400 E10.77802
G1 X67.100 Y36.600 E15.48821
G1 X73.476 Y36.600 E16.06804
G1 X75.022 Y36.293 F7800.000
G1 F1800
G1 X74.819 Y36.357 E16.08739
G1 X74.535 Y36.505 E16.11655
G1 X74.249 Y36.734 E16.14985
G1 X74.036 Y36.988 E16.17999
G1 X73.855 Y37.319 E16.21427
G1 X73.749 Y37.680 E16.24855
G1 X73.721 Y38.001 E16.27779
G1 X73.750 Y38.323 E16.30718
G1 X73.852 Y38.672 E16.34023
G1 X74.005 Y38.965 E16.37032
G1 X74.234 Y39.251 E16.40363
G1 X74.488 Y39.464 E16.43377
G1 X74.809 Y39.640 E16.46707
G1 X75.125 Y39.740 E16.49721
G1 X75.500 Y39.781 E16.53149
G1 X75.875 Y39.740 E16.56577
G1 X76.181 Y39.643 E16.59493
G1 X76.465 Y39.495 E16.62410
G1 X76.751 Y39.266 E16.65740
G1 X76.964 Y39.012 E16.68754
G1 X77.140 Y38.691 E16.72084
G1 X77.240 Y38.375 E16.75098
G1 X77.280 Y38.010 E16.78435
G1 X77.250 Y37.677 E16.81473
G1 X77.145 Y37.318 E16.84875
G1 X76.964 Y36.988 E16.88298
G1 X76.757 Y36.742 E16.91222
G1 X76.509 Y36.534 E16.94161
G1 X76.181 Y36.355 E16.97564
G1 X75.982 Y36.297 E16.99444
G1 X76.028 Y35.975 E17.02401
G1 X84.525 Y35.975 E17.79661
G1 X84.525 Y89.025 E22.62044
G1 X66.475 Y89.025 E24.26174
G1 X66.475 Y35.975 E29.08558
G1 X74.973 Y35.975 E29.85834
G1 X75.013 Y36.233 E29.88213
G1 E27.88213 F2400.00000
G92 E0
G1 X65.850 Y35.350 F7800.000
G1 E2.00000 F2400.00000
G1 F1800
G1 X85.150 Y35.350 E3.75494
G1 X85.150 Y89.650 E8.69242
G1 X65.850 Y89.650 E10.44736
G1 X65.850 Y35.410 E15.37938
G1 X66.217 Y35.509 F7800.000
G1 E13.37938 F2400.00000
G92 E0
G1 X75.376 Y36.536 F7800.000
G1 E2.00000 F2400.00000
G1 F1800
G1 X75.502 Y36.387 E2.00626
G1 F1800
G1 X75.502 Y36.145 E2.01585
G1 F1800
G1 X75.500 Y35.662 E2.04183
G1 X76.837 Y36.287 F7800.000
G1 F1800
G1 X77.018 Y36.508 E2.04336
G1 X78.687 Y36.982 F7800.000
G1 F1800
G1 X78.182 Y37.486 E2.10897
G1 X78.241 Y37.687 E2.12820
G1 X78.292 Y38.270 E2.18196
G1 X79.580 Y36.982 E2.34940
G1 X80.473 Y36.982 E2.43150
G1 X78.063 Y39.392 E2.74483
G1 E0.74483 F2400.00000
G92 E0
G1 X67.968 Y36.982 F7800.000
G1 E2.00000 F2400.00000
G1 F1800
G1 X67.482 Y37.468 E2.06320
G1 X67.482 Y38.361 E2.14530
G1 X68.861 Y36.982 E2.32460
G1 X69.754 Y36.982 E2.40670
G1 X67.482 Y39.254 E2.70212
G1 X67.482 Y40.148 E2.78422
G1 X70.648 Y36.982 E3.19573
G1 X71.541 Y36.982 E3.27783
G1 X67.482 Y41.041 E3.80546
G1 X67.482 Y41.934 E3.88756
G1 X72.434 Y36.982 E4.53129
G1 X72.823 Y36.982 E4.56707
G1 X72.758 Y37.206 E4.58854
G1 X72.725 Y37.584 E4.62343
G1 X67.482 Y42.827 E5.30497
G1 X67.482 Y43.721 E5.38707
G1 X72.789 Y38.414 E6.07687
G1 X72.930 Y38.897 E6.12315
G1 X73.022 Y39.074 E6.14145
G1 X67.482 Y44.614 E6.86158
G1 X67.482 Y45.507 E6.94368
G1 X73.367 Y39.622 E7.70870
G1 X73.580 Y39.886 E7.73987
G1 X73.806 Y40.076 E7.76704
G1 X67.482 Y46.400 E8.58909
G1 X67.482 Y47.294 E8.67119
G1 X74.342 Y40.433 E9.56295
G1 X74.559 Y40.552 E9.58566
G1 X74.983 Y40.686 E9.62653
G1 X67.482 Y48.187 E10.60156
G1 X67.482 Y49.080 E10.68366
G1 X75.770 Y40.792 E11.76097
G1 X76.376 Y40.726 E11.81703
G1 X76.892 Y40.563 E11.86676
G1 X67.482 Y49.973 E13.08996
G1 X67.482 Y50.867 E13.17205
G1 X81.367 Y36.982 E14.97685
G1 X82.260 Y36.982 E15.05895
G1 X67.482 Y51.760 E16.97985
G1 X67.482 Y52.653 E17.06195
G1 X83.153 Y36.982 E19.09896
G1 X83.518 Y36.982 E19.13252
G1 X83.518 Y37.510 E19.18106
G1 X67.482 Y53.546 E21.26553
G1 X67.482 Y54.440 E21.34763
G1 X83.518 Y38.403 E23.43210
G1 X83.518 Y39.296 E23.51420
G1 X67.482 Y55.333 E25.59867
G1 X67.482 Y56.226 E25.68077
G1 X83.518 Y40.190 E27.76524
G1 X83.518 Y41.083 E27.84734
G1 X67.482 Y57.120 E29.93181
G1 X67.482 Y58.013 E30.01391
G1 X72.980 Y52.514 E30.72865
G1 X72.936 Y52.594 E30.73709
G1 X72.758 Y53.206 E30.79563
G1 X72.717 Y53.670 E30.83847
G1 X67.482 Y58.906 E31.51902
G1 X67.482 Y59.799 E31.60112
G1 X72.807 Y54.474 E32.29326
G1 X72.936 Y54.920 E32.33588
G1 X73.049 Y55.125 E32.35743
G1 X67.482 Y60.693 E33.08110
G1 X67.482 Y61.586 E33.16320
