; generated by Slic3r 1.3.0 on 2024-09-02 at 01:09:34

; external perimeters extrusion width = 0.44mm (3.38mm^3/s)
; perimeters extrusion width = 0.48mm (7.54mm^3/s)
; infill extrusion width = 0.48mm (10.05mm^3/s)
; solid infill extrusion width = 0.48mm (2.51mm^3/s)
; top infill extrusion width = 0.48mm (1.88mm^3/s)

M107
M104 S200 ; set temperature
G21 ;metric values
G90 ;absolute positioning
M82 ;set extruder to absolute mode
M107 ;start with the fan off
G28 X0 Y0 ;move X/Y to min endstops
G28 Z0 ;move Z to min endstops
G1 Z15.0 F9000 ;move the platform down 15mm
G92 E0 ;zero the extruded length
G1 F200 E3 ;extrude 3mm of feed stock
G92 E0 ;zero the extruded length again
G1 F9000
;Put printing message on LCD screen
M117 Printing...
; Filament gcode

M109 S200 ; set temperature and wait for it to be reached
G21 ; set units to millimeters
G90 ; use absolute coordinates
M82 ; use absolute distances for extrusion
G92 E0
G1 Z0.150 F7800.000
G1 E-2.00000 F2400.00000
G92 E0
G1 X45.875 Y5.750 F7800.000
G1 E2.00000 F2400.00000
G1 F1800
G1 X46.272 Y3.491 E2.07096
G1 X47.415 Y1.503 E2.14192
G1 X49.168 Y0.024 E2.21289
G1 X51.320 Y-0.769 E2.28385
G1 X52.500 Y-0.875 E2.32050
G1 X72.500 Y-0.875 E2.93933
G1 X74.759 Y-0.478 E3.01029
G1 X76.747 Y0.665 E3.08125
G1 X78.226 Y2.418 E3.15221
G1 X79.019 Y4.570 E3.22318
G1 X79.125 Y5.750 E3.25983
G1 X79.125 Y119.250 E6.77167
G1 X78.728 Y121.509 E6.84263
G1 X77.585 Y123.497 E6.91359
G1 X75.832 Y124.976 E6.98455
G1 X73.680 Y125.769 E7.05552
G1 X72.500 Y125.875 E7.09217
G1 X52.500 Y125.875 E7.71099
G1 X50.241 Y125.478 E7.78196
G1 X48.253 Y124.335 E7.85292
G1 X46.774 Y122.582 E7.92388
G1 X45.981 Y120.430 E7.99484
G1 X45.875 Y119.250 E8.03149
G1 X45.875 Y5.810 E11.54148
G1 E9.54148 F2400.00000
G92 E0
G1 X64.684 Y28.232 F7800.000
G1 E2.00000 F2400.00000
G1 F1800
G1 X64.847 Y28.712 E2.01569
G1 X64.906 Y29.163 E2.02975
G1 X64.874 Y29.651 E2.04489
G1 X64.756 Y30.090 E2.05896
G1 X64.540 Y30.529 E2.07410
G1 X64.274 Y30.875 E2.08762
G1 X63.952 Y31.171 E2.10114
G1 X63.533 Y31.424 E2.11628
G1 X63.106 Y31.580 E2.13034
G1 X62.623 Y31.654 E2.14548
G1 X62.168 Y31.635 E2.15955
G1 X61.676 Y31.514 E2.17523
G1 X61.221 Y31.290 E2.19092
G1 X60.875 Y31.024 E2.20444
G1 X60.579 Y30.702 E2.21796
G1 X60.316 Y30.268 E2.23365
G1 X60.153 Y29.788 E2.24933
G1 X60.094 Y29.337 E2.26340
G1 X60.126 Y28.849 E2.27854
G1 X60.244 Y28.410 E2.29260
G1 X60.460 Y27.971 E2.30774
G1 X60.737 Y27.611 E2.32181
G1 X61.105 Y27.288 E2.33695
G1 X61.483 Y27.070 E2.35047
G1 X61.894 Y26.920 E2.36399
G1 X62.377 Y26.846 E2.37913
G1 X62.832 Y26.865 E2.39320
G1 X63.324 Y26.986 E2.40888
G1 X63.779 Y27.210 E2.42457
G1 X64.125 Y27.476 E2.43809
G1 X64.421 Y27.798 E2.45161
G1 X64.652 Y28.180 E2.46544
G1 X64.114 Y28.497 F7800.000
G1 F1800
G1 X64.235 Y28.854 E2.47710
G1 X64.278 Y29.183 E2.48736
G1 X64.254 Y29.548 E2.49869
G1 X64.169 Y29.869 E2.50895
G1 X64.007 Y30.197 E2.52028
G1 X63.811 Y30.452 E2.53020
G1 X63.575 Y30.668 E2.54013
G1 X63.262 Y30.858 E2.55146
G1 X62.950 Y30.972 E2.56171
G1 X62.588 Y31.027 E2.57305
G1 X62.257 Y31.013 E2.58330
G1 X61.891 Y30.923 E2.59497
G1 X61.553 Y30.757 E2.60663
G1 X61.298 Y30.561 E2.61656
G1 X61.082 Y30.325 E2.62648
G1 X60.886 Y30.003 E2.63814
G1 X60.765 Y29.646 E2.64981
G1 X60.722 Y29.317 E2.66007
G1 X60.746 Y28.952 E2.67140
G1 X60.831 Y28.631 E2.68165
G1 X60.993 Y28.303 E2.69299
G1 X61.195 Y28.040 E2.70324
G1 X61.471 Y27.798 E2.71457
G1 X61.748 Y27.638 E2.72450
G1 X62.050 Y27.528 E2.73442
G1 X62.412 Y27.473 E2.74575
G1 X62.743 Y27.487 E2.75601
G1 X63.109 Y27.577 E2.76767
G1 X63.447 Y27.743 E2.77934
G1 X63.702 Y27.939 E2.78926
G1 X63.918 Y28.175 E2.79919
G1 X64.083 Y28.446 E2.80900
G1 X63.544 Y28.763 F7800.000
G1 F1800
G1 X63.624 Y28.997 E2.81664
G1 X63.651 Y29.204 E2.82309
G1 X63.635 Y29.446 E2.83061
G1 X63.581 Y29.648 E2.83706
G1 X63.473 Y29.866 E2.84458
G1 X63.349 Y30.028 E2.85091
G1 X63.198 Y30.166 E2.85724
G1 X62.990 Y30.292 E2.86476
G1 X62.794 Y30.363 E2.87121
G1 X62.554 Y30.400 E2.87873
G1 X62.346 Y30.391 E2.88518
G1 X62.106 Y30.333 E2.89282
G1 X61.884 Y30.223 E2.90046
G1 X61.722 Y30.099 E2.90679
G1 X61.584 Y29.948 E2.91312
G1 X61.456 Y29.737 E2.92076
G1 X61.376 Y29.503 E2.92841
G1 X61.349 Y29.296 E2.93485
G1 X61.365 Y29.054 E2.94238
G1 X61.419 Y28.852 E2.94882
G1 X61.527 Y28.634 E2.95635
G1 X61.654 Y28.469 E2.96279
G1 X61.836 Y28.309 E2.97032
G1 X62.013 Y28.207 E2.97665
G1 X62.206 Y28.137 E2.98297
G1 X62.446 Y28.100 E2.99050
G1 X62.654 Y28.109 E2.99695
G1 X62.894 Y28.167 E3.00459
G1 X63.116 Y28.277 E3.01223
G1 X63.278 Y28.401 E3.01856
G1 X63.416 Y28.552 E3.02489
G1 X63.513 Y28.712 E3.03067
G1 X63.544 Y28.763 F7800.000
G1 E1.03067 F2400.00000
G92 E0
G1 X62.587 Y15.656 F7800.000
G1 E2.00000 F2400.00000
G1 F1800
G1 X62.099 Y15.624 E2.01514
G1 X61.660 Y15.506 E2.02921
G1 X61.221 Y15.290 E2.04435
G1 X60.875 Y15.024 E2.05787
G1 X60.579 Y14.702 E2.07139
G1 X60.316 Y14.268 E2.08707
G1 X60.153 Y13.788 E2.10276
G1 X60.094 Y13.337 E2.11682
G1 X60.126 Y12.849 E2.13196
G1 X60.239 Y12.427 E2.14548
G1 X60.424 Y12.031 E2.15900
G1 X60.713 Y11.637 E2.17414
G1 X61.048 Y11.329 E2.18821
G1 X61.467 Y11.076 E2.20335
G1 X61.894 Y10.920 E2.21742
G1 X62.395 Y10.843 E2.23310
G1 X62.901 Y10.876 E2.24879
G1 X63.323 Y10.989 E2.26231
G1 X63.719 Y11.174 E2.27583
G1 X64.113 Y11.463 E2.29097
G1 X64.421 Y11.798 E2.30503
G1 X64.684 Y12.232 E2.32072
G1 X64.847 Y12.712 E2.33641
G1 X64.906 Y13.163 E2.35047
G1 X64.874 Y13.651 E2.36561
G1 X64.761 Y14.073 E2.37913
G1 X64.576 Y14.469 E2.39265
G1 X64.287 Y14.864 E2.40779
G1 X63.952 Y15.171 E2.42186
G1 X63.518 Y15.434 E2.43754
G1 X63.038 Y15.597 E2.45323
G1 X62.647 Y15.648 E2.46544
G1 X62.567 Y15.028 F7800.000
G1 F1800
G1 X62.202 Y15.004 E2.47677
G1 X61.881 Y14.919 E2.48703
G1 X61.553 Y14.757 E2.49836
G1 X61.298 Y14.561 E2.50828
G1 X61.082 Y14.325 E2.51821
G1 X60.886 Y14.003 E2.52987
G1 X60.765 Y13.646 E2.54153
G1 X60.722 Y13.317 E2.55179
G1 X60.746 Y12.952 E2.56312
G1 X60.829 Y12.642 E2.57305
G1 X60.964 Y12.351 E2.58297
G1 X61.181 Y12.056 E2.59430
G1 X61.425 Y11.832 E2.60456
G1 X61.738 Y11.642 E2.61589
G1 X62.050 Y11.528 E2.62615
G1 X62.422 Y11.471 E2.63781
G1 X62.798 Y11.496 E2.64948
G1 X63.108 Y11.579 E2.65940
G1 X63.399 Y11.714 E2.66933
G1 X63.694 Y11.931 E2.68066
G1 X63.918 Y12.175 E2.69091
G1 X64.114 Y12.497 E2.70258
G1 X64.235 Y12.854 E2.71424
G1 X64.278 Y13.183 E2.72450
G1 X64.254 Y13.548 E2.73583
G1 X64.171 Y13.858 E2.74575
G1 X64.036 Y14.149 E2.75568
G1 X63.819 Y14.444 E2.76701
G1 X63.575 Y14.668 E2.77727
G1 X63.253 Y14.864 E2.78893
G1 X62.896 Y14.985 E2.80060
G1 X62.626 Y15.020 E2.80900
G1 X62.546 Y14.401 F7800.000
G1 F1800
G1 X62.304 Y14.385 E2.81652
G1 X62.102 Y14.331 E2.82297
G1 X61.884 Y14.223 E2.83049
G1 X61.722 Y14.099 E2.83682
G1 X61.584 Y13.948 E2.84315
G1 X61.456 Y13.737 E2.85079
G1 X61.376 Y13.503 E2.85843
G1 X61.349 Y13.296 E2.86488
G1 X61.365 Y13.054 E2.87240
G1 X61.418 Y12.856 E2.87873
G1 X61.505 Y12.671 E2.88506
G1 X61.648 Y12.475 E2.89258
G1 X61.802 Y12.334 E2.89903
G1 X62.010 Y12.208 E2.90655
G1 X62.206 Y12.137 E2.91300
G1 X62.450 Y12.099 E2.92064
G1 X62.696 Y12.115 E2.92828
G1 X62.894 Y12.168 E2.93461
G1 X63.079 Y12.255 E2.94094
G1 X63.275 Y12.398 E2.94846
G1 X63.416 Y12.552 E2.95491
G1 X63.544 Y12.763 E2.96256
G1 X63.624 Y12.997 E2.97020
G1 X63.651 Y13.204 E2.97665
G1 X63.635 Y13.446 E2.98417
G1 X63.582 Y13.644 E2.99050
G1 X63.495 Y13.829 E2.99683
G1 X63.352 Y14.025 E3.00435
G1 X63.198 Y14.166 E3.01080
G1 X62.987 Y14.294 E3.01844
G1 X62.753 Y14.374 E3.02608
G1 X62.606 Y14.393 E3.03067
G1 X62.546 Y14.401 F7800.000
G1 E1.03067 F2400.00000
G92 E0
G1 X70.900 Y7.350 F7800.000
G1 E2.00000 F2400.00000
G1 F1800
G1 X70.900 Y54.150 E3.44807
G1 X54.100 Y54.150 E3.96790
G1 X54.100 Y7.350 E5.41596
G1 X70.840 Y7.350 E5.93393
G1 X71.525 Y6.725 F7800.000
G1 F1800
G1 X71.525 Y54.775 E7.42067
G1 X53.475 Y54.775 E7.97917
G1 X53.475 Y6.725 E9.46591
G1 X71.465 Y6.725 E10.02255
G1 X72.150 Y6.100 F7800.000
G1 F1800
G1 X72.150 Y55.400 E11.54795
G1 X52.850 Y55.400 E12.14512
G1 X52.850 Y6.100 E13.67053
G1 X72.090 Y6.100 E14.26584
G1 X72.100 Y6.497 F7800.000
G1 E12.26584 F2400.00000
G92 E0
G1 X65.149 Y14.376 F7800.000
G1 E2.00000 F2400.00000
G1 F1800
G1 X70.518 Y9.006 E2.23545
G1 X70.518 Y8.121 E2.26290
G1 X65.286 Y13.353 E2.49231
G1 X65.215 Y12.812 E2.50922
G1 X65.146 Y12.608 E2.51591
G1 X70.022 Y7.732 E2.72971
G1 X69.136 Y7.732 E2.75717
G1 X64.878 Y11.990 E2.94390
G1 X64.680 Y11.665 E2.95571
G1 X64.507 Y11.476 E2.96366
G1 X68.251 Y7.732 E3.12782
G1 X67.365 Y7.732 E3.15528
G1 X64.041 Y11.056 E3.30105
G1 X63.796 Y10.877 E3.31046
G1 X63.481 Y10.730 E3.32122
G1 X66.480 Y7.732 E3.45269
G1 X65.594 Y7.732 E3.48014
G1 X62.812 Y10.514 E3.60212
G1 X62.124 Y10.458 E3.62352
G1 X61.956 Y10.484 E3.62878
G1 X64.709 Y7.732 E3.74946
G1 X63.823 Y7.732 E3.77691
G1 X60.571 Y10.984 E3.91950
G1 X60.429 Y11.070 E3.92467
G1 X60.003 Y11.460 E3.94258
G1 X59.751 Y11.804 E3.95580
G1 E1.95580 F2400.00000
G92 E0
G1 X54.482 Y8.218 F7800.000
G1 E2.00000 F2400.00000
G1 F1800
G1 X54.968 Y7.732 E2.02131
G1 X55.853 Y7.732 E2.04877
G1 X54.482 Y9.103 E2.10892
G1 X54.482 Y9.989 E2.13637
G1 X56.739 Y7.732 E2.23535
G1 X57.624 Y7.732 E2.26280
G1 X54.482 Y10.874 E2.40060
G1 X54.482 Y11.760 E2.42806
G1 X58.510 Y7.732 E2.60469
G1 X59.396 Y7.732 E2.63214
G1 X54.482 Y12.646 E2.84760
G1 X54.482 Y13.531 E2.87506
G1 X60.281 Y7.732 E3.12934
G1 X61.167 Y7.732 E3.15679
G1 X54.482 Y14.417 E3.44991
G1 X54.482 Y15.302 E3.47736
G1 X62.052 Y7.732 E3.80930
G1 X62.938 Y7.732 E3.83675
G1 X54.482 Y16.188 E4.20752
G1 X54.482 Y17.073 E4.23497
G1 X60.237 Y11.318 E4.48731
G1 X60.127 Y11.468 E4.49309
G1 X59.893 Y11.970 E4.51024
G1 X59.750 Y12.504 E4.52739
G1 X59.737 Y12.704 E4.53360
G1 X54.482 Y17.959 E4.76401
G1 X54.482 Y18.844 E4.79146
G1 X59.768 Y13.558 E5.02325
G1 X59.785 Y13.688 E5.02731
G1 X59.972 Y14.239 E5.04536
G1 X54.482 Y19.730 E5.28610
G1 X54.482 Y20.615 E5.31356
G1 X60.298 Y14.799 E5.56858
G1 X60.719 Y15.263 E5.58802
G1 X54.482 Y21.501 E5.86153
G1 X54.482 Y22.386 E5.88898
G1 X61.237 Y15.631 E6.18517
G1 X61.682 Y15.851 E6.20056
G1 X61.856 Y15.897 E6.20614
G1 X54.482 Y23.272 E6.52948
G1 X54.482 Y24.157 E6.55694
G1 X62.614 Y16.025 E6.91351
G1 X62.851 Y16.040 E6.92088
G1 X63.424 Y15.965 E6.93879
G1 X63.629 Y15.895 E6.94551
G1 X54.482 Y25.043 E7.34660
G1 X54.482 Y25.928 E7.37405
G1 X70.518 Y9.892 E8.07721
G1 X70.518 Y10.777 E8.10467
G1 X54.482 Y26.814 E8.80782
G1 X54.482 Y27.699 E8.83528
G1 X70.518 Y11.663 E9.53843
G1 X70.518 Y12.548 E9.56589
G1 X54.482 Y28.585 E10.26904
G1 X54.482 Y29.470 E10.29650
G1 X70.518 Y13.434 E10.99966
G1 X70.518 Y14.319 E11.02711
G1 X54.482 Y30.356 E11.73027
G1 X54.482 Y31.241 E11.75772
G1 X70.518 Y15.205 E12.46088
G1 X70.518 Y16.090 E12.48833
G1 X54.482 Y32.127 E13.19149
G1 X54.482 Y33.013 E13.21894
G1 X60.409 Y27.085 E13.47885
G1 X60.170 Y27.397 E13.49103
G1 X59.899 Y27.946 E13.51002
G1 X59.750 Y28.504 E13.52793
G1 X59.741 Y28.639 E13.53212
G1 X54.482 Y33.898 E13.76272
G1 X54.482 Y34.784 E13.79017
G1 X59.761 Y29.504 E14.02165
G1 X59.785 Y29.688 E14.02738
G1 X59.957 Y30.194 E14.04395
G1 X54.482 Y35.669 E14.28402
G1 X54.482 Y36.555 E14.31148
G1 X60.275 Y30.761 E14.56550
G1 X60.320 Y30.835 E14.56819
G1 X60.687 Y31.235 E14.58501
G1 X54.482 Y37.440 E14.85707
G1 X54.482 Y38.326 E14.88453
G1 X61.196 Y31.611 E15.17893
G1 X61.704 Y31.862 E15.19649
G1 X61.806 Y31.887 E15.19975
G1 X54.482 Y39.211 E15.52090
G1 X54.482 Y40.097 E15.54836
G1 X62.555 Y32.023 E15.90235
G1 X62.900 Y32.038 E15.91305
G1 X63.527 Y31.937 E15.93273
G1 X54.482 Y40.982 E16.32932
G1 X54.482 Y41.868 E16.35677
G1 X70.518 Y25.831 E17.05993
G1 X70.518 Y26.717 E17.08738
G1 X54.482 Y42.753 E17.79054
G1 X54.482 Y43.639 E17.81799
G1 X70.518 Y27.602 E18.52115
G1 X70.518 Y28.488 E18.54860
G1 X54.482 Y44.524 E19.25176
G1 X54.482 Y45.410 E19.27922
G1 X70.518 Y29.373 E19.98237
G1 X70.518 Y30.259 E20.00983
G1 X54.482 Y46.295 E20.71298
G1 X54.482 Y47.181 E20.74044
G1 X70.518 Y31.144 E21.44359
G1 X70.518 Y32.030 E21.47105
G1 X54.482 Y48.066 E22.17420
G1 X54.482 Y48.952 E22.20166
G1 X70.518 Y32.915 E22.90482
G1 X70.518 Y33.801 E22.93227
G1 X54.482 Y49.837 E23.63543
G1 X54.482 Y50.723 E23.66288
G1 X70.518 Y34.686 E24.36604
G1 X70.518 Y35.572 E24.39349
G1 X54.482 Y51.608 E25.09665
G1 X54.482 Y52.494 E25.12410
G1 X70.518 Y36.457 E25.82726
G1 X70.518 Y37.343 E25.85471
G1 X54.482 Y53.380 E26.55787
G1 X54.482 Y53.768 E26.56993
G1 X54.978 Y53.768 E26.58533
G1 X70.518 Y38.228 E27.26670
G1 X70.518 Y39.114 E27.29416
G1 X55.864 Y53.768 E27.93671
G1 X56.749 Y53.768 E27.96417
G1 X70.518 Y39.999 E28.56789
G1 X70.518 Y40.885 E28.59534
G1 X57.635 Y53.768 E29.16024
G1 X58.520 Y53.768 E29.18770
G1 X70.518 Y41.770 E29.71377
G1 X70.518 Y42.656 E29.74122
G1 X59.406 Y53.768 E30.22846
G1 X60.291 Y53.768 E30.25592
G1 X70.518 Y43.541 E30.70434
G1 X70.518 Y44.427 E30.73179
G1 X61.177 Y53.768 E31.14138
G1 X62.062 Y53.768 E31.16883
G1 X70.518 Y45.312 E31.53960
G1 X70.518 Y46.198 E31.56705
G1 X62.948 Y53.768 E31.89898
G1 X63.834 Y53.768 E31.92644
G1 X70.518 Y47.084 E32.21955
G1 X70.518 Y47.969 E32.24700
G1 X64.719 Y53.768 E32.50128
G1 X65.605 Y53.768 E32.52874
G1 X70.518 Y48.855 E32.74419
G1 X70.518 Y49.740 E32.77165
G1 X66.490 Y53.768 E32.94827
G1 X67.376 Y53.768 E32.97573
G1 X70.518 Y50.626 E33.11353
G1 X70.518 Y51.511 E33.14098
G1 X68.261 Y53.768 E33.23995
G1 X69.147 Y53.768 E33.26741
G1 X70.518 Y52.397 E33.32755
G1 X70.518 Y53.282 E33.35501
G1 X70.032 Y53.768 E33.37632
G1 E31.37632 F2400.00000
G92 E0
G1 X65.171 Y30.293 F7800.000
G1 E2.00000 F2400.00000
G1 F1800
G1 X70.518 Y24.945 E2.23447
G1 X70.518 Y24.060 E2.26193
G1 X65.279 Y29.299 E2.49165
G1 X65.215 Y28.812 E2.50688
G1 X65.130 Y28.563 E2.51505
G1 X70.518 Y23.174 E2.75131
G1 X70.518 Y22.289 E2.77876
G1 X64.855 Y27.953 E3.02710
G1 X64.680 Y27.665 E3.03754
G1 X64.478 Y27.444 E3.04682
G1 X70.518 Y21.403 E3.31168
G1 X70.518 Y20.518 E3.33913
G1 X64.008 Y27.028 E3.62458
G1 X63.867 Y26.920 E3.63009
G1 X63.441 Y26.710 E3.64483
G1 X70.518 Y19.632 E3.95515
G1 X70.518 Y18.747 E3.98260
G1 X62.758 Y26.507 E4.32285
G1 X62.677 Y26.487 E4.32544
G1 X62.100 Y26.462 E4.34335
G1 X61.885 Y26.495 E4.35010
G1 X70.518 Y17.861 E4.72866
G1 X70.518 Y16.976 E4.75611
G1 X60.313 Y27.181 E5.20359
G1 X60.036 Y27.424 E5.21502
G1 X59.923 Y27.571 E5.22075
G1 Z0.150 F7800.000
G1 E3.22075 F2400.00000
G92 E0
G1 X62.494 Y66.098 F7800.000
G1 E2.00000 F2400.00000
G1 F1800
G1 X62.703 Y66.116 E2.00652
G1 X62.941 Y66.186 E2.01416
G1 X63.155 Y66.303 E2.02173
G1 X63.314 Y66.436 E2.02813
G1 X63.446 Y66.593 E2.03447
G1 X63.564 Y66.809 E2.04210
G1 X63.633 Y67.044 E2.04967
G1 X63.652 Y67.254 E2.05619
G1 X63.625 Y67.496 E2.06372
G1 X63.563 Y67.694 E2.07017
G1 X63.446 Y67.907 E2.07769
G1 X63.312 Y68.067 E2.08414
G1 X63.122 Y68.219 E2.09166
G1 X62.941 Y68.314 E2.09799
G1 X62.746 Y68.375 E2.10432
G1 X62.500 Y68.402 E2.11196
G1 X62.254 Y68.375 E2.11961
G1 X62.056 Y68.313 E2.12605
G1 X61.843 Y68.196 E2.13358
G1 X61.683 Y68.062 E2.14002
G1 X61.531 Y67.872 E2.14755
G1 X61.435 Y67.687 E2.15399
G1 X61.367 Y67.456 E2.16144
G1 X61.349 Y67.250 E2.16784
G1 X61.366 Y67.046 E2.17417
G1 X61.436 Y66.809 E2.18182
G1 X61.554 Y66.593 E2.18946
G1 X61.688 Y66.433 E2.19591
G1 X61.878 Y66.281 E2.20343
G1 X62.059 Y66.186 E2.20976
G1 X62.254 Y66.125 E2.21608
G1 X62.434 Y66.105 E2.22168
G1 X62.494 Y66.098 F7800.000
G1 E0.22168 F2400.00000
G92 E0
G1 X62.486 Y113.471 F7800.000
G1 E2.00000 F2400.00000
G1 F1800
G1 X62.819 Y113.499 E2.01033
G1 X63.181 Y113.605 E2.02202
G1 X63.512 Y113.786 E2.03369
G1 X63.758 Y113.992 E2.04361
G1 X63.964 Y114.238 E2.05354
G1 X64.145 Y114.569 E2.06520
G1 X64.251 Y114.930 E2.07686
G1 X64.279 Y115.250 E2.08679
G1 X64.251 Y115.570 E2.09671
G1 X64.145 Y115.931 E2.10838
G1 X63.964 Y116.262 E2.12004
G1 X63.758 Y116.508 E2.12997
G1 X63.512 Y116.714 E2.13989
G1 X63.182 Y116.895 E2.15153
G1 X62.772 Y117.015 E2.16477
G1 X62.465 Y117.027 E2.17425
G1 X62.125 Y116.990 E2.18484
G1 X61.809 Y116.890 E2.19509
G1 X61.488 Y116.714 E2.20642
G1 X61.242 Y116.508 E2.21635
G1 X61.036 Y116.262 E2.22627
G1 X60.855 Y115.931 E2.23794
G1 X60.749 Y115.570 E2.24960
G1 X60.721 Y115.250 E2.25953
